Soundbits/app/assets/SoundBite.svg

<?xml version="1.0" encoding="UTF-8" standalone="no"?>
<!-- Generator: Adobe Illustrator 27.4.1, SVG Export Plug-In . SVG Version: 6.00 Build 0)  -->

<svg
   version="1.1"
   id="Layer_1"
   x="0px"
   y="0px"
   viewBox="0 0 1920 1920"
   xml:space="preserve"
   sodipodi:docname="SoundBite.svg"
   width="1920"
   height="1920"
   inkscape:version="1.2.2 (732a01da63, 2022-12-09)"
   inkscape:export-filename="icon.png"
   inkscape:export-xdpi="96"
   inkscape:export-ydpi="96"
   xmlns:inkscape="http://www.inkscape.org/namespaces/inkscape"
   xmlns:sodipodi="http://sodipodi.sourceforge.net/DTD/sodipodi-0.dtd"
   xmlns:xlink="http://www.w3.org/1999/xlink"
   xmlns="http://www.w3.org/2000/svg"
   xmlns:svg="http://www.w3.org/2000/svg"><defs
   id="defs147"><linearGradient
     inkscape:collect="always"
     id="linearGradient9323"><stop
       style="stop-color:#500c7e;stop-opacity:1;"
       offset="0"
       id="stop9321" /><stop
       style="stop-color:#6cbcff;stop-opacity:1;"
       offset="1"
       id="stop9319" /></linearGradient><linearGradient
     inkscape:collect="always"
     id="linearGradient7794"><stop
       style="stop-color:#790085;stop-opacity:1;"
       offset="0"
       id="stop7792" /><stop
       style="stop-color:#ff0de7;stop-opacity:1;"
       offset="1"
       id="stop7790" /></linearGradient><linearGradient
     id="linearGradient3383"
     inkscape:swatch="gradient"><stop
       style="stop-color:#5c0058;stop-opacity:1;"
       offset="0"
       id="stop3379" /><stop
       style="stop-color:#000000;stop-opacity:1;"
       offset="1"
       id="stop3381" /></linearGradient><linearGradient
     inkscape:collect="always"
     xlink:href="#linearGradient7794"
     id="linearGradient7796"
     x1="977.37378"
     y1="745.46545"
     x2="977.37378"
     y2="1071.7488"
     gradientUnits="userSpaceOnUse" /><linearGradient
     inkscape:collect="always"
     xlink:href="#linearGradient9323"
     id="linearGradient9325"
     x1="976.41132"
     y1="829.20911"
     x2="976.41132"
     y2="1242.5994"
     gradientUnits="userSpaceOnUse" /><linearGradient
     inkscape:collect="always"
     xlink:href="#linearGradient7794"
     id="linearGradient419"
     gradientUnits="userSpaceOnUse"
     x1="977.37378"
     y1="745.46545"
     x2="977.37378"
     y2="1071.7488"
     gradientTransform="matrix(0.99999999,0,0,1.8844838,1.1158216e-5,-829.10491)" /><linearGradient
     inkscape:collect="always"
     xlink:href="#linearGradient9323"
     id="linearGradient421"
     gradientUnits="userSpaceOnUse"
     x1="976.41132"
     y1="829.20911"
     x2="976.41132"
     y2="1242.5994"
     gradientTransform="matrix(0.99999999,0,0,1.7524533,9.1892403e-6,-706.2365)" /><linearGradient
     inkscape:collect="always"
     xlink:href="#linearGradient9323"
     id="linearGradient423"
     gradientUnits="userSpaceOnUse"
     x1="976.41132"
     y1="829.20911"
     x2="976.41132"
     y2="1242.5994"
     gradientTransform="matrix(0.99999999,0,0,1.894433,1.2436728e-5,-839.4956)" /><linearGradient
     inkscape:collect="always"
     xlink:href="#linearGradient7794"
     id="linearGradient425"
     gradientUnits="userSpaceOnUse"
     x1="977.37378"
     y1="745.46545"
     x2="977.37378"
     y2="1071.7488"
     gradientTransform="matrix(0.99999999,0,0,1.6254157,8.6514457e-6,-586.50556)" /><linearGradient
     inkscape:collect="always"
     xlink:href="#linearGradient7794"
     id="linearGradient427"
     gradientUnits="userSpaceOnUse"
     x1="977.37378"
     y1="745.46545"
     x2="977.37378"
     y2="1071.7488"
     gradientTransform="matrix(1,0,0,1.4610234,3.3267882e-6,-432.83223)" /><linearGradient
     inkscape:collect="always"
     xlink:href="#linearGradient9323"
     id="linearGradient429"
     gradientUnits="userSpaceOnUse"
     x1="976.41132"
     y1="829.20911"
     x2="976.41132"
     y2="1242.5994"
     gradientTransform="matrix(0.99999999,0,0,1.6151909,3.9004696e-6,-577.80171)" /><linearGradient
     inkscape:collect="always"
     xlink:href="#linearGradient7794"
     id="linearGradient431"
     gradientUnits="userSpaceOnUse"
     x1="977.37378"
     y1="745.46545"
     x2="977.37378"
     y2="1071.7488"
     gradientTransform="matrix(0.99999999,0,0,2.063123,5.6033688e-6,-998.5624)" /><linearGradient
     inkscape:collect="always"
     xlink:href="#linearGradient9323"
     id="linearGradient433"
     gradientUnits="userSpaceOnUse"
     x1="976.41132"
     y1="829.20911"
     x2="976.41132"
     y2="1242.5994"
     gradientTransform="matrix(0.99999998,0,0,3.5188014,9.836752e-6,-2364.8422)" /><linearGradient
     inkscape:collect="always"
     xlink:href="#linearGradient9323"
     id="linearGradient435"
     gradientUnits="userSpaceOnUse"
     x1="976.41132"
     y1="829.20911"
     x2="976.41132"
     y2="1242.5994"
     gradientTransform="matrix(0.99999998,0,0,3.4173203,2.9359132e-5,-2271.7217)" /></defs><sodipodi:namedview
   id="namedview145"
   pagecolor="#686868"
   bordercolor="#000000"
   borderopacity="0.25"
   inkscape:showpageshadow="2"
   inkscape:pageopacity="0"
   inkscape:pagecheckerboard="true"
   inkscape:deskcolor="#595959"
   showgrid="false"
   inkscape:zoom="0.31510416"
   inkscape:cx="917.15704"
   inkscape:cy="866.38018"
   inkscape:window-width="1920"
   inkscape:window-height="1017"
   inkscape:window-x="-8"
   inkscape:window-y="-8"
   inkscape:window-maximized="1"
   inkscape:current-layer="layer1" />
<style
   type="text/css"
   id="style2">
	.st0{fill:#FFFFFF;}
</style>
























<g
   inkscape:groupmode="layer"
   id="layer1"
   inkscape:label="Layer 1"
   transform="matrix(1.6486698,0,0,1.6486698,-622.80469,-622.89366)"
   style="display:inline"><rect
     style="display:inline;fill:#000000;fill-opacity:1;fill-rule:nonzero;stroke:#fff600;stroke-width:0;stroke-dasharray:none;stroke-opacity:0"
     id="rect9379"
     width="1166.5001"
     height="1164.5752"
     x="389.44821"
     y="383.26047" /><g
     id="g9317"
     style="fill-opacity:1;fill:url(#linearGradient9325)"><g
       id="g8558"
       style="fill:url(#linearGradient9325);fill-opacity:1"><rect
         style="display:inline;fill:url(#linearGradient433);fill-opacity:1;stroke:#fff600;stroke-width:0;stroke-dasharray:none;stroke-opacity:0"
         id="rect1270"
         width="42.049587"
         height="91.430672"
         x="451.23969"
         y="893.16071" /><rect
         style="display:inline;fill:url(#linearGradient429);fill-opacity:1;stroke:#fff600;stroke-width:0;stroke-dasharray:none;stroke-opacity:0"
         id="rect1480-6"
         width="41.851238"
         height="450.27902"
         x="581.65289"
         y="714.08398" /><path
         id="rect1480-6-1-4"
         style="display:inline;fill:url(#linearGradient9325);stroke:#fff600;stroke-width:0;stroke-dasharray:none;stroke-opacity:0;fill-opacity:1"
         d="M 712.31431 823.58602 L 712.31431 1050.6607 A 43.215633 38.111427 0 0 1 742.19754 1040.0022 A 43.215633 38.111427 0 0 1 754.16624 1041.5719 L 754.16624 823.58602 L 712.31431 823.58602 z " /><path
         id="rect1480-6-1-4-8-0-6"
         style="display:inline;fill:url(#linearGradient9325);stroke:#fff600;stroke-width:0;stroke-dasharray:none;stroke-opacity:0;fill-opacity:1"
         d="M 906.56419 798.76132 L 906.56419 969.17924 A 29.354995 23.339628 0 0 1 928.76959 961.06546 A 29.354995 23.339628 0 0 1 948.41611 967.07764 L 948.41611 798.76132 L 906.56419 798.76132 z " /><rect
         style="display:inline;fill:url(#linearGradient423);fill-opacity:1;stroke:#fff600;stroke-width:0;stroke-dasharray:none;stroke-opacity:0"
         id="rect1480-6-1-4-8-0-6-9-6"
         width="41.851238"
         height="242.16306"
         x="1361.9504"
         y="817.49701" /><rect
         style="display:inline;fill:url(#linearGradient435);fill-opacity:1;stroke:#fff600;stroke-width:0;stroke-dasharray:none;stroke-opacity:0"
         id="rect1480-6-1-4-8-0-6-9-6-7"
         width="41.851238"
         height="87.079041"
         x="1427.0082"
         y="896.22906" /><rect
         style="display:inline;fill:url(#linearGradient9325);stroke:#fff600;stroke-width:0;stroke-dasharray:none;stroke-opacity:0;fill-opacity:1"
         id="rect1480-6-1-4-8-0-6-9-6-7-0"
         width="41.851238"
         height="25.977543"
         x="1036.4629"
         y="925.83771" /><rect
         style="display:inline;fill:url(#linearGradient9325);stroke:#fff600;stroke-width:0;stroke-dasharray:none;stroke-opacity:0;fill-opacity:1"
         id="rect1480-6-1-4-8-0-6-9-6-7-0-3"
         width="41.851238"
         height="25.977543"
         x="971.60333"
         y="925.68896" /><rect
         style="display:inline;fill:url(#linearGradient9325);stroke:#fff600;stroke-width:0;stroke-dasharray:none;stroke-opacity:0;fill-opacity:1"
         id="rect1480-6-1-4-8-0-6-9-6-7-0-3-0-8"
         width="41.851204"
         height="72.142143"
         x="555.31219"
         y="1271.6176"
         transform="matrix(0.94889055,-0.31560538,0.31676047,0.94850558,0,0)" /><rect
         style="display:inline;fill:url(#linearGradient9325);stroke:#fff600;stroke-width:0;stroke-dasharray:none;stroke-opacity:0;fill-opacity:1"
         id="rect1480-6-1-4-8-0-6-9-6-7-0-3-0-8-5-9"
         width="41.225243"
         height="52.895779"
         x="1127.9155"
         y="770.89227"
         transform="matrix(0.92751605,0.37378328,-0.35943993,0.93316824,0,0)" /><rect
         style="display:inline;fill:url(#linearGradient421);fill-opacity:1;stroke:#fff600;stroke-width:0;stroke-dasharray:none;stroke-opacity:0"
         id="rect1480-6-1-4-8-0-6-9-5"
         width="41.851238"
         height="488.18542"
         x="1166.7769"
         y="694.48584" /></g></g><g
     id="g7788"
     style="fill-opacity:1;fill:url(#linearGradient7796)"><rect
       style="fill:url(#linearGradient431);fill-opacity:1;stroke:#fff600;stroke-width:0;stroke-dasharray:none;stroke-opacity:0"
       id="rect1480"
       width="41.851238"
       height="261.48804"
       x="516.49585"
       y="808.52869" /><rect
       style="fill:url(#linearGradient427);fill-opacity:1;stroke:#fff600;stroke-width:0;stroke-dasharray:none;stroke-opacity:0"
       id="rect1480-6-1"
       width="41.851238"
       height="655.65436"
       x="646.11566"
       y="611.02362" /><path
       id="rect1480-6-1-4-8"
       style="fill:url(#linearGradient7796);stroke:#fff600;stroke-width:0;stroke-dasharray:none;stroke-opacity:0;fill-opacity:1"
       d="M 776.83129 800.02299 L 776.83129 960.41271 A 55.100773 24.542702 0 0 1 797.14715 958.6594 A 55.100773 24.542702 0 0 1 818.68203 960.62476 L 818.68203 800.02299 L 776.83129 800.02299 z M 818.68203 983.20096 L 797.15307 983.20215 L 818.68203 983.20215 L 818.68203 983.20096 z " /><path
       id="rect1480-6-1-4-8-0"
       style="fill:url(#linearGradient7796);stroke:#fff600;stroke-width:0;stroke-dasharray:none;stroke-opacity:0;fill-opacity:1"
       d="M 841.34708 742.51924 L 841.34708 941.53622 A 29.434267 27.222448 0 0 1 863.99081 931.68216 A 29.434267 27.222448 0 0 1 883.199 938.31511 L 883.199 742.51924 L 841.34708 742.51924 z M 883.199 958.90107 L 863.99318 958.90463 L 883.199 958.90463 L 883.199 958.90107 z " /><rect
       style="fill:url(#linearGradient7796);stroke:#fff600;stroke-width:0;stroke-dasharray:none;stroke-opacity:0;fill-opacity:1"
       id="rect1480-6-1-4-8-0-6-9"
       width="41.851238"
       height="146.8701"
       x="1101.2764"
       y="865.95001" /><rect
       style="fill:url(#linearGradient7796);stroke:#fff600;stroke-width:0;stroke-dasharray:none;stroke-opacity:0;fill-opacity:1"
       id="rect1480-6-1-4-8-0-6-9-6-7-0-3-0"
       width="41.851238"
       height="99.329643"
       x="997.16437"
       y="866.43683"
       transform="rotate(10.021887)" /><rect
       style="fill:url(#linearGradient7796);stroke:#fff600;stroke-width:0;stroke-dasharray:none;stroke-opacity:0;fill-opacity:1"
       id="rect1480-6-1-4-8-0-6-9-6-7-0-3-0-8-5"
       width="41.851204"
       height="72.142143"
       x="-709.62769"
       y="1282.1776"
       transform="matrix(0.40474142,-0.91443118,0.9149233,0.40362775,0,0)" /><rect
       style="fill:url(#linearGradient425);fill-opacity:1;stroke:#fff600;stroke-width:0;stroke-dasharray:none;stroke-opacity:0"
       id="rect1480-6-1-4-8-0-6-9-5-9"
       width="41.851238"
       height="452.79623"
       x="1296.0991"
       y="711.38702" /><rect
       style="display:inline;fill:url(#linearGradient419);fill-opacity:1;fill-rule:nonzero;stroke:#fff600;stroke-width:0;stroke-dasharray:none;stroke-opacity:0"
       id="rect1480-6-1-4-8-0-6-9-5-9-6"
       width="41.851238"
       height="667.00262"
       x="1231.8347"
       y="603.88715" /></g></g><g
   id="g500"
   transform="translate(0.5,377.795)"
   style="display:none"><g
     id="g8">
	<rect
   x="516.5"
   y="498.5"
   width="41"
   height="126"
   id="rect4" />
	<path
   d="M 557,499 V 624 H 517 V 499 h 40 m 1,-1 h -42 v 127 h 42 z"
   id="path6" />
</g><g
     id="g14">
	<rect
   x="581.5"
   y="422.5"
   width="41"
   height="278"
   id="rect10" />
	<path
   d="M 622,423 V 700 H 582 V 423 h 40 m 1,-1 h -42 v 279 h 42 z"
   id="path12" />
</g><g
     id="g20">
	<rect
   x="646.5"
   y="337.5"
   width="41"
   height="448"
   id="rect16" />
	<path
   d="M 687,338 V 785 H 647 V 338 h 40 m 1,-1 h -42 v 449 h 42 z"
   id="path18" />
</g><g
     id="g26">
	<path
   id="rect22"
   d="m 711.5,446.49992 v 231 h 30.38281 A 48.549999,52.259998 0 0 1 738.13086,657.61906 48.549999,52.259998 0 0 1 752.5,620.69328 V 446.49992 Z" />
	<path
   d="M 752,447 V 677 H 712 V 447 h 40 m 1,-1 h -42 v 232 h 42 z"
   id="path24" />
</g><g
     id="g32">
	<rect
   x="776.5"
   y="422.5"
   width="41"
   height="278"
   id="rect28" />
	<path
   d="M 817,423 V 700 H 777 V 423 h 40 m 1,-1 h -42 v 279 h 42 z"
   id="path30" />
</g><g
     id="g38">
	<rect
   x="841.5"
   y="364.5"
   width="41"
   height="394"
   id="rect34" />
	<path
   d="M 882,365 V 758 H 842 V 365 h 40 m 1,-1 h -42 v 395 h 42 z"
   id="path36" />
</g><g
     id="g44">
	<rect
   x="1231.5"
   y="383.5"
   width="41"
   height="353"
   id="rect40" />
	<path
   d="m 1272,384 v 352 h -40 V 384 h 40 m 1,-1 h -42 v 354 h 42 z"
   id="path42" />
</g><g
     id="g50">
	<rect
   x="1166.5"
   y="421.5"
   width="41"
   height="278"
   id="rect46" />
	<path
   d="m 1207,422 v 277 h -40 V 422 h 40 m 1,-1 h -42 v 279 h 42 z"
   id="path48" />
</g><g
     id="g56">
	<rect
   x="906.5"
   y="422.5"
   width="41"
   height="278"
   id="rect52" />
	<path
   d="M 947,423 V 700 H 907 V 423 h 40 m 1,-1 h -42 v 279 h 42 z"
   id="path54" />
</g><g
     id="g62">
	<rect
   x="1101.5"
   y="488.5"
   width="41"
   height="146"
   id="rect58" />
	<path
   d="m 1142,489 v 145 h -40 V 489 h 40 m 1,-1 h -42 v 147 h 42 z"
   id="path60" />
</g><g
     id="g68">
	<rect
   x="1426.5"
   y="549.5"
   width="41"
   height="25"
   id="rect64" />
	<path
   d="m 1467,550 v 24 h -40 v -24 h 40 m 1,-1 h -42 v 26 h 42 z"
   id="path66" />
</g><g
     id="g74">
	<rect
   x="1296.5"
   y="421.5"
   width="41"
   height="278"
   id="rect70" />
	<path
   d="m 1337,422 v 277 h -40 V 422 h 40 m 1,-1 h -42 v 279 h 42 z"
   id="path72" />
</g><g
     id="g80">
	<rect
   x="1361.5"
   y="498.5"
   width="41"
   height="126"
   id="rect76" />
	<path
   d="m 1402,499 v 125 h -40 V 499 h 40 m 1,-1 h -42 v 127 h 42 z"
   id="path78" />
</g><g
     id="g86">
	<rect
   x="1036.5"
   y="548.5"
   width="41"
   height="25"
   id="rect82" />
	<path
   d="m 1077,549 v 24 h -40 v -24 h 40 m 1,-1 h -42 v 26 h 42 z"
   id="path84" />
</g><g
     id="g92">
	<rect
   x="971.5"
   y="548.5"
   width="41"
   height="25"
   id="rect88" />
	<path
   d="m 1012,549 v 24 h -40 v -24 h 40 m 1,-1 h -42 v 26 h 42 z"
   id="path90" />
</g><g
     id="g98">
	<rect
   x="451.5"
   y="548.5"
   width="41"
   height="25"
   id="rect94" />
	<path
   d="m 492,549 v 24 h -40 v -24 h 40 m 1,-1 h -42 v 26 h 42 z"
   id="path96" />
</g><g
     id="g102">
	<ellipse
   class="st0"
   cx="757.54999"
   cy="730.78003"
   rx="48.549999"
   ry="52.259998"
   id="ellipse100" />
</g><g
     id="g106">
	<ellipse
   class="st0"
   cx="806.23285"
   cy="661.75714"
   rx="48.549999"
   ry="52.259998"
   id="ellipse104-2"
   style="fill:#ffffff" />
</g><g
     id="g110">
	<ellipse
   class="st0"
   cx="859.25"
   cy="629.56"
   rx="48.549999"
   ry="52.259998"
   id="ellipse108" />
</g><g
     id="g114">
	<ellipse
   class="st0"
   cx="937.45001"
   cy="626.26001"
   rx="48.549999"
   ry="52.259998"
   id="ellipse112" />
</g><g
     id="g118">
	<ellipse
   class="st0"
   cx="873.82001"
   cy="714.28003"
   rx="107.07"
   ry="84.720001"
   id="ellipse116" />
</g><g
     id="g124">
	<rect
   x="939.5"
   y="645.5"
   transform="rotate(-19.931708,960.04966,681.52207)"
   width="41"
   height="72"
   id="rect120" />
	<path
   d="m 966.7,641.31 24.21,66.75 -37.6,13.64 -24.21,-66.75 37.6,-13.64 m 0.6,-1.28 -39.48,14.32 24.89,68.63 39.48,-14.32 z"
   id="path122" />
</g><g
     id="g130">
	<rect
   x="792.64001"
   y="678.75"
   transform="matrix(0.1571,-0.9876,0.9876,0.1571,20.9036,1423.033)"
   width="102.97"
   height="41.040001"
   id="rect126" />
	<path
   d="m 832.37,645.77 39.54,6.29 -16.02,100.7 -39.54,-6.29 16.02,-100.7 m -0.84,-1.14 -16.33,102.67 41.52,6.61 16.34,-102.67 z"
   id="path128" />
</g><g
     id="g136">
	<rect
   x="752.39001"
   y="774.15002"
   transform="matrix(0.3308,-0.9437,0.9437,0.3308,-228.4388,1267.1667)"
   width="53.700001"
   height="41"
   id="rect132" />
	<path
   d="m 769.08,763.17 37.75,13.23 -17.43,49.73 -37.75,-13.23 17.43,-49.73 m -0.61,-1.27 -18.09,51.62 39.64,13.89 18.09,-51.62 z"
   id="path134" />
</g><g
     id="g142">
	<rect
   x="906.62"
   y="747.04999"
   transform="rotate(-64.608584,927.09825,783.04419)"
   width="41"
   height="72"
   id="rect138" />
	<path
   d="m 903.63,749.76 64.14,30.45 -17.15,36.14 -64.14,-30.45 17.15,-36.14 m -0.48,-1.33 -18.01,37.94 65.95,31.3 18.01,-37.94 z"
   id="path140" />
</g></g>
</svg>

<?xml version="1.0" encoding="utf-8"?>
<!-- Generator: Adobe Illustrator 27.4.1, SVG Export Plug-In . SVG Version: 6.00 Build 0)  -->
<svg version="1.1" id="Layer_1" xmlns="http://www.w3.org/2000/svg" xmlns:xlink="http://www.w3.org/1999/xlink" x="0px" y="0px"
	 viewBox="0 0 1920 1080" style="enable-background:new 0 0 1920 1080;" xml:space="preserve">
<style type="text/css">
	.st0{fill:#FFFFFF;}
</style>
<g>
	<rect x="516.5" y="498.5" width="41" height="126"/>
	<path d="M557,499v125h-40V499H557 M558,498h-42v127h42V498L558,498z"/>
</g>
<g>
	<rect x="581.5" y="422.5" width="41" height="278"/>
	<path d="M622,423v277h-40V423H622 M623,422h-42v279h42V422L623,422z"/>
</g>
<g>
	<rect x="646.5" y="337.5" width="41" height="448"/>
	<path d="M687,338v447h-40V338H687 M688,337h-42v449h42V337L688,337z"/>
</g>
<g>
	<rect x="711.5" y="446.5" width="41" height="231"/>
	<path d="M752,447v230h-40V447H752 M753,446h-42v232h42V446L753,446z"/>
</g>
<g>
	<rect x="776.5" y="422.5" width="41" height="278"/>
	<path d="M817,423v277h-40V423H817 M818,422h-42v279h42V422L818,422z"/>
</g>
<g>
	<rect x="841.5" y="364.5" width="41" height="394"/>
	<path d="M882,365v393h-40V365H882 M883,364h-42v395h42V364L883,364z"/>
</g>
<g>
	<rect x="1231.5" y="383.5" width="41" height="353"/>
	<path d="M1272,384v352h-40V384H1272 M1273,383h-42v354h42V383L1273,383z"/>
</g>
<g>
	<rect x="1166.5" y="421.5" width="41" height="278"/>
	<path d="M1207,422v277h-40V422H1207 M1208,421h-42v279h42V421L1208,421z"/>
</g>
<g>
	<rect x="906.5" y="422.5" width="41" height="278"/>
	<path d="M947,423v277h-40V423H947 M948,422h-42v279h42V422L948,422z"/>
</g>
<g>
	<rect x="1101.5" y="488.5" width="41" height="146"/>
	<path d="M1142,489v145h-40V489H1142 M1143,488h-42v147h42V488L1143,488z"/>
</g>
<g>
	<rect x="1426.5" y="549.5" width="41" height="25"/>
	<path d="M1467,550v24h-40v-24H1467 M1468,549h-42v26h42V549L1468,549z"/>
</g>
<g>
	<rect x="1296.5" y="421.5" width="41" height="278"/>
	<path d="M1337,422v277h-40V422H1337 M1338,421h-42v279h42V421L1338,421z"/>
</g>
<g>
	<rect x="1361.5" y="498.5" width="41" height="126"/>
	<path d="M1402,499v125h-40V499H1402 M1403,498h-42v127h42V498L1403,498z"/>
</g>
<g>
	<rect x="1036.5" y="548.5" width="41" height="25"/>
	<path d="M1077,549v24h-40v-24H1077 M1078,548h-42v26h42V548L1078,548z"/>
</g>
<g>
	<rect x="971.5" y="548.5" width="41" height="25"/>
	<path d="M1012,549v24h-40v-24H1012 M1013,548h-42v26h42V548L1013,548z"/>
</g>
<g>
	<rect x="451.5" y="548.5" width="41" height="25"/>
	<path d="M492,549v24h-40v-24H492 M493,548h-42v26h42V548L493,548z"/>
</g>
<g>
	<ellipse class="st0" cx="757.55" cy="730.78" rx="48.55" ry="52.26"/>
</g>
<g>
	<ellipse class="st0" cx="786.68" cy="657.62" rx="48.55" ry="52.26"/>
</g>
<g>
	<ellipse class="st0" cx="859.25" cy="629.56" rx="48.55" ry="52.26"/>
</g>
<g>
	<ellipse class="st0" cx="937.45" cy="626.26" rx="48.55" ry="52.26"/>
</g>
<g>
	<ellipse class="st0" cx="873.82" cy="714.28" rx="107.07" ry="84.72"/>
</g>
<g>
	<rect x="939.5" y="645.5" transform="matrix(0.9401 -0.3409 0.3409 0.9401 -174.8239 368.1041)" width="41" height="72"/>
	<path d="M966.7,641.31l24.21,66.75l-37.6,13.64l-24.21-66.75L966.7,641.31 M967.3,640.03l-39.48,14.32l24.89,68.63l39.48-14.32
		L967.3,640.03L967.3,640.03z"/>
</g>
<g>
	<rect x="792.64" y="678.75" transform="matrix(0.1571 -0.9876 0.9876 0.1571 20.9036 1423.033)" width="102.97" height="41.04"/>
	<path d="M832.37,645.77l39.54,6.29l-16.02,100.7l-39.54-6.29L832.37,645.77 M831.53,644.63L815.2,747.3l41.52,6.61l16.34-102.67
		L831.53,644.63L831.53,644.63z"/>
</g>
<g>
	<rect x="752.39" y="774.15" transform="matrix(0.3308 -0.9437 0.9437 0.3308 -228.4388 1267.1667)" width="53.7" height="41"/>
	<path d="M769.08,763.17l37.75,13.23l-17.43,49.73l-37.75-13.23L769.08,763.17 M768.47,761.9l-18.09,51.62l39.64,13.89l18.09-51.62
		L768.47,761.9L768.47,761.9z"/>
</g>
<g>
	<rect x="906.62" y="747.05" transform="matrix(0.4288 -0.9034 0.9034 0.4288 -177.8436 1284.8154)" width="41" height="72"/>
	<path d="M903.63,749.76l64.14,30.45l-17.15,36.14l-64.14-30.45L903.63,749.76 M903.15,748.43l-18.01,37.94l65.95,31.3l18.01-37.94
		L903.15,748.43L903.15,748.43z"/>
</g>
</svg>
